X:218
T:A jointes mains vous proi
C:Adam de la Halle
R:Rondeau
O:XIIIe
M:6/8
L:1/8
Q:1/4=60
K:C 
%%continueall 1
%%maxshrink 0.6
V:1
%%MIDI program 46
Bc2 e/2f/2g2 | (3f/2e/2d/2 (3f/2e/2d/2c df2 | e/2f/2gf ef2 | Bc2 e/2f/2g2 | 
(3f/2e/2d/2 (3f/2e/2d/2c Bc2 | e/2f/2g2 (3f/2e/2d/2 (3f/2e/2d/2c | Bc2 e/2f/2g2 | (3f/2e/2d/2 (3f/2e/2d/2c df2 | e/2f/2gf ef3/2\
V:2
%%MIDI program 54
ef2 (3e/2d/2c/2de | dcB/2A/2 Bc2 | c/2B/2de dc2 | ef2 (3e/2d/2c/2de | 
dcB/2A/2 ef2 | (3e/2d/2c/2de dcB/2A/2 | ef2 (3e/2d/2c/2de | dcB/2A/2 Bc2 | c/2B/2de dc3/2\
V:3
GF2 AG2 | GF2 GF2 | AG2 GF2 | GF2 AG2 | 
GF2 GF2 | AG2 GF2 | GF2 AG2 | GF2 GF2 | AG2 GF3/2
W:
W:A jointes mains vous proi
W:Douche dame,Merchi.
W:Liés sui quant je vous voi;
W:A jointes mains vous proi
W:Aiiés merchi de moi,
W:Dame, je vous en pri.
W:A jointes mains vous proi
W:Douche dame,Merchi.







%%header "$P0	 $IR 	$P1"
%%footer $D - Éditions Galouvielle - 2009 - À usage librement privé dans le cadre familial

